file-document-outline.svg

<svg fill="currentColor" viewBox="0 0 24 24"><path d="M6 2a2 2 0 0 0-2 2v16a2 2 0 0 0 2 2h12a2 2 0 0 0 2-2V8l-6-6zm0 2h7v5h5v11H6zm2 8v2h8v-2zm0 4v2h5v-2z"/></svg>

<svg  viewBox="0 0 24 24" fill="currentColor"><path  d="M6,2A2,2 0 0,0 4,4V20A2,2 0 0,0 6,22H18A2,2 0 0,0 20,20V8L14,2H6M6,4H13V9H18V20H6V4M8,12V14H16V12H8M8,16V18H13V16H8Z"/></svg>
